public/school.svg

<svg width="512" height="512" viewBox="0 0 512 512" fill="none" xmlns="http://www.w3.org/2000/svg">
<g clip-path="url(#clip0_425_33)">
<path d="M478.09 132.55L255.999 38.135L34.7837 132.153L33.9097 132.549C12.9218 142.684 -0.0711986 163.458 -0.000198778 186.765C0.0708011 210.072 13.1928 230.766 34.2437 240.771L82.2776 260.867H80.9996V398.659C68.4947 405.422 59.9997 418.651 59.9997 433.865C59.9997 455.956 77.9086 473.865 99.9996 473.865C122.091 473.865 140 455.956 140 433.865C140 419.477 132.4 406.869 121 399.821V277.066L255.999 333.544L385.55 279.36C397.522 301.072 408.099 329.912 414.773 359.086C355.556 375.237 302.278 397.759 255.999 426.203C229.391 409.849 200.456 395.464 169.42 383.11C165.115 381.453 161.348 380.067 158.052 378.908C171.042 392.622 179.233 410.909 179.928 431.079C203.148 441.653 224.921 453.505 245.09 466.629L255.999 473.727L266.907 466.629C316.548 434.327 375.745 409.599 442.855 393.13L460.94 388.692L457.802 370.337C451.314 332.384 438.37 293.636 422.624 263.855L476.887 241.16L477.755 240.772C498.806 230.767 511.927 210.073 511.999 186.766C512.071 163.459 499.078 142.684 478.09 132.55V132.55ZM460.943 204.469L255.999 290.188L162.228 250.968L296.022 194.181L244.866 172.44L110.664 229.4L51.0547 204.468C44.1477 201.029 40.0237 194.394 39.9997 186.641C39.9757 178.888 44.0587 172.229 50.9417 168.747L255.999 81.5979L461.058 168.748C467.941 172.23 472.024 178.89 472 186.642C471.976 194.395 467.851 201.03 460.943 204.469V204.469Z" fill="#FFD796"/>
</g>
<defs>
<clipPath id="clip0_425_33">
<rect width="512" height="512" fill="white"/>
</clipPath>
</defs>
</svg>

<svg id="Layer_1" enable-background="new 0 0 512.001 512.001" height="512" viewBox="0 0 512.001 512.001" width="512" xmlns="http://www.w3.org/2000/svg"><path d="m478.091 132.55-222.091-94.415-221.216 94.018-.874.396c-20.988 10.135-33.981 30.909-33.91 54.216s13.193 44.001 34.244 54.006l48.034 20.096h-1.278v137.793c-12.505 6.763-21 19.992-21 35.206 0 22.091 17.909 40 40 40s40-17.909 40-40c0-14.388-7.6-26.996-19-34.044v-122.756l135 56.479 129.551-54.185c11.972 21.713 22.549 50.553 29.223 79.727-59.217 16.151-112.495 38.673-158.774 67.117-26.608-16.354-55.543-30.739-86.579-43.093-4.305-1.657-8.072-3.043-11.368-4.202 12.99 13.714 21.181 32.001 21.876 52.171 23.22 10.574 44.993 22.426 65.162 35.55l10.909 7.098 10.908-7.098c49.641-32.302 108.838-57.03 175.948-73.499l18.085-4.438-3.138-18.355c-6.488-37.953-19.432-76.702-35.178-106.483l54.263-22.695.868-.388c21.051-10.005 34.172-30.699 34.244-54.006s-12.921-44.082-33.909-54.216zm-17.147 71.919-204.944 85.719-93.771-39.22 133.794-56.787-51.156-21.741-134.203 56.96-59.609-24.932c-6.907-3.439-11.031-10.074-11.055-17.827s4.059-14.412 10.942-17.894l205.058-87.149 205.059 87.15c6.883 3.482 10.966 10.142 10.942 17.894-.024 7.753-4.149 14.388-11.057 17.827z"/></svg>
